; generated by Slic3r Prusa Edition 1.41.3+linux64 on 2021-05-04 at 11:52:30

;

; external perimeters extrusion width = 0.45mm
; perimeters extrusion width = 0.45mm
; infill extrusion width = 0.45mm
; solid infill extrusion width = 0.45mm
; top infill extrusion width = 0.40mm
; first layer extrusion width = 0.42mm

M73 P0 R18
M73 Q0 S18
M201 X1000 Y1000 Z1000 E5000 ; sets maximum accelerations, mm/sec^2
M203 X200 Y200 Z12 E120 ; sets maximum feedrates, mm/sec
M204 P1250 R1250 T1250 ; sets acceleration (P, T) and retract acceleration (R), mm/sec^2
M205 X8.00 Y8.00 Z0.40 E1.50 ; sets the jerk limits, mm/sec
M205 S0 T0 ; sets the minimum extruding and travel feed rate, mm/sec
M107
M115 U3.5.1 ; tell printer latest fw version
M83  ; extruder relative mode
M104 S220 ; set extruder temp
M140 S100 ; set bed temp
M190 S100 ; wait for bed temp
M109 S220 ; wait for extruder temp
G28 W ; home all without mesh bed level
G80 ; mesh bed leveling
G1 Y-3.0 F1000.0 ; go outside print area
G92 E0.0
G1 X60.0 E9.0  F1000.0 ; intro line
M73 Q0 S18
M73 P0 R18
G1 X100.0 E12.5  F1000.0 ; intro line
G92 E0.0
M221 S95
M900 K10; Filament gcode
G21 ; set units to millimeters
G90 ; use absolute coordinates
M83 ; use relative distances for extrusion
;BEFORE_LAYER_CHANGE
G92 E0.0
;0.2


G1 E-0.80000 F2100.00000
G1 Z0.600 F10800.000
;AFTER_LAYER_CHANGE
;0.2
G1 X99.127 Y77.993
G1 Z0.200
G1 E0.80000 F2100.00000
M204 S1000
G1 F1200
G1 X99.972 Y77.812 E0.02438
G1 X150.004 Y77.811 E1.41183
G1 X150.823 Y77.972 E0.02358
G1 X151.526 Y78.431 E0.02368
G1 X152.003 Y79.117 E0.02358
G1 X152.188 Y79.936 E0.02368
G1 X152.188 Y130.026 E1.41348
G1 X152.026 Y130.827 E0.02307
G1 X151.582 Y131.513 E0.02307
G1 X150.863 Y132.011 E0.02469
G1 X150.002 Y132.189 E0.02479
G1 X99.974 Y132.188 E1.41173
G1 X99.173 Y132.026 E0.02307
G1 X98.487 Y131.582 E0.02307
G1 X97.989 Y130.863 E0.02469
G1 X97.811 Y130.002 E0.02479
G1 X97.812 Y79.974 E1.41173
G1 X97.974 Y79.173 E0.02307
G1 X98.418 Y78.487 E0.02307
G1 X99.078 Y78.027 E0.02269
; PURGING FINISHED
G1 F8640
G1 X99.972 Y77.812 E-0.21237
G1 X102.344 Y77.812 E-0.54763
G1 E-0.04000 F2100.00000
G1 Z0.800 F10800.000
G1 X100.587 Y80.587
G1 Z0.200
G1 E0.80000 F2100.00000
G1 F1200
G1 X149.413 Y80.587 E1.37781
G1 X149.413 Y129.413 E1.37781
G1 X100.587 Y129.413 E1.37781
G1 X100.587 Y80.647 E1.37612
G1 X100.210 Y80.210 F10800.000
G1 F1200
G1 X149.790 Y80.210 E1.39909
G1 X149.790 Y129.790 E1.39909
G1 X100.210 Y129.790 E1.39909
G1 X100.210 Y80.270 E1.39740
G1 X100.596 Y80.314 F10800.000
G1 F8640
G1 X103.501 Y80.266 E-0.76000
G1 E-0.04000 F2100.00000
G1 Z0.800 F10800.000
G1 X100.973 Y129.200 ; G1 X100.973 Y129.300
G1 Z0.200
G1 E0.80000 F2100.00000
G1 F1200
G1 X100.973 Y80.841 E1.367
M73 P0
G1 X101.35 Y80.841 E0.011
G1 X101.35 Y129.3 E1.367
G1 X101.727 Y129.3 E0.011
G1 X101.727 Y80.841 E1.367
G1 X102.104 Y80.841 E0.011
G1 X102.104 Y129.3 E1.367
G1 X102.481 Y129.3 E0.011
G1 X102.481 Y80.841 E1.367
G1 X102.858 Y80.841 E0.011
G1 X102.858 Y129.3 E1.367
G1 X103.235 Y129.3 E0.011
G1 X103.235 Y80.841 E1.367
G1 X103.612 Y80.841 E0.011
G1 X103.612 Y129.3 E1.367
G1 X103.989 Y129.3 E0.011
G1 X103.989 Y80.841 E1.367
G1 X104.366 Y80.841 E0.011
G1 X104.366 Y129.3 E1.367
G1 X104.743 Y129.3 E0.011
G1 X104.743 Y80.841 E1.367
G1 X105.12 Y80.841 E0.011
G1 X105.12 Y129.3 E1.367
G1 X105.497 Y129.3 E0.011
G1 X105.497 Y80.841 E1.367
G1 X105.874 Y80.841 E0.011
G1 X105.874 Y129.3 E1.367
G1 X106.251 Y129.3 E0.011
G1 X106.251 Y80.841 E1.367
G1 X106.628 Y80.841 E0.011
G1 X106.628 Y129.3 E1.367
G1 X107.005 Y129.3 E0.011
G1 X107.005 Y80.841 E1.367
G1 X107.382 Y80.841 E0.011
G1 X107.382 Y129.3 E1.367
G1 X107.759 Y129.3 E0.011
G1 X107.759 Y80.841 E1.367
G1 X108.136 Y80.841 E0.011
G1 X108.136 Y129.3 E1.367
G1 X108.513 Y129.3 E0.011
G1 X108.513 Y80.841 E1.367
G1 X108.89 Y80.841 E0.011
G1 X108.89 Y129.3 E1.367
G1 X109.267 Y129.3 E0.011
G1 X109.267 Y80.841 E1.367
G1 X109.644 Y80.841 E0.011
G1 X109.644 Y129.3 E1.367
G1 X110.021 Y129.3 E0.011
G1 X110.021 Y80.841 E1.367
G1 X110.398 Y80.841 E0.011
G1 X110.398 Y129.3 E1.367
G1 X110.775 Y129.3 E0.011
G1 X110.775 Y80.841 E1.367
G1 X111.152 Y80.841 E0.011
G1 X111.152 Y129.3 E1.367
G1 X111.529 Y129.3 E0.011
G1 X111.529 Y80.841 E1.367
G1 X111.906 Y80.841 E0.011
G1 X111.906 Y129.3 E1.367
G1 X112.283 Y129.3 E0.011
G1 X112.283 Y80.841 E1.367
G1 X112.66 Y80.841 E0.011
G1 X112.66 Y129.3 E1.367
G1 X113.037 Y129.3 E0.011
G1 X113.037 Y80.841 E1.367
G1 X113.414 Y80.841 E0.011
G1 X113.414 Y129.3 E1.367
G1 X113.791 Y129.3 E0.011
G1 X113.791 Y80.841 E1.367
G1 X114.168 Y80.841 E0.011
G1 X114.168 Y129.3 E1.367
G1 X114.545 Y129.3 E0.011
G1 X114.545 Y80.841 E1.367
G1 X114.922 Y80.841 E0.011
G1 X114.922 Y129.3 E1.367
G1 X115.299 Y129.3 E0.011
G1 X115.299 Y80.841 E1.367
G1 X115.676 Y80.841 E0.011
G1 X115.676 Y129.3 E1.367
G1 X116.053 Y129.3 E0.011
G1 X116.053 Y80.841 E1.367
G1 X116.43 Y80.841 E0.011
G1 X116.43 Y129.3 E1.367
G1 X116.807 Y129.3 E0.011
G1 X116.807 Y80.841 E1.367
G1 X117.184 Y80.841 E0.011
G1 X117.184 Y129.3 E1.367
G1 X117.561 Y129.3 E0.011
G1 X117.561 Y80.841 E1.367
G1 X117.938 Y80.841 E0.011
G1 X117.938 Y129.3 E1.367
G1 X118.315 Y129.3 E0.011
G1 X118.315 Y80.841 E1.367
G1 X118.692 Y80.841 E0.011
G1 X118.692 Y129.3 E1.367
G1 X119.069 Y129.3 E0.011
G1 X119.069 Y80.841 E1.367
G1 X119.446 Y80.841 E0.011
G1 X119.446 Y129.3 E1.367
G1 X119.823 Y129.3 E0.011
G1 X119.823 Y80.841 E1.367
G1 X120.2 Y80.841 E0.011
G1 X120.2 Y129.3 E1.367
G1 X120.577 Y129.3 E0.011
G1 X120.577 Y80.841 E1.367
G1 X120.954 Y80.841 E0.011
G1 X120.954 Y129.3 E1.367
G1 X121.331 Y129.3 E0.011
G1 X121.331 Y80.841 E1.367
G1 X121.708 Y80.841 E0.011
G1 X121.708 Y129.3 E1.367
G1 X122.085 Y129.3 E0.011
G1 X122.085 Y80.841 E1.367
G1 X122.462 Y80.841 E0.011
G1 X122.462 Y129.3 E1.367
G1 X122.839 Y129.3 E0.011
G1 X122.839 Y80.841 E1.367
G1 X123.216 Y80.841 E0.011
G1 X123.216 Y129.3 E1.367
G1 X123.593 Y129.3 E0.011
G1 X123.593 Y80.841 E1.367
G1 X123.97 Y80.841 E0.011
G1 X123.97 Y129.3 E1.367
G1 X124.347 Y129.3 E0.011
G1 X124.347 Y80.841 E1.367
G1 X124.724 Y80.841 E0.011
G1 X124.724 Y129.3 E1.367
G1 X125.101 Y129.3 E0.011
G1 X125.101 Y80.841 E1.367
G1 X125.478 Y80.841 E0.011
G1 X125.478 Y129.3 E1.367
G1 X125.855 Y129.3 E0.011
G1 X125.855 Y80.841 E1.367
G1 X126.232 Y80.841 E0.011
G1 X126.232 Y129.3 E1.367
G1 X126.609 Y129.3 E0.011
G1 X126.609 Y80.841 E1.367
G1 X126.986 Y80.841 E0.011
G1 X126.986 Y129.3 E1.367
G1 X127.363 Y129.3 E0.011
G1 X127.363 Y80.841 E1.367
G1 X127.74 Y80.841 E0.011
G1 X127.74 Y129.3 E1.367
G1 X128.117 Y129.3 E0.011
G1 X128.117 Y80.841 E1.367
G1 X128.494 Y80.841 E0.011
G1 X128.494 Y129.3 E1.367
G1 X128.871 Y129.3 E0.011
G1 X128.871 Y80.841 E1.367
G1 X129.248 Y80.841 E0.011
G1 X129.248 Y129.3 E1.367
G1 X129.625 Y129.3 E0.011
G1 X129.625 Y80.841 E1.367
G1 X130.002 Y80.841 E0.011
G1 X130.002 Y129.3 E1.367
G1 X130.379 Y129.3 E0.011
G1 X130.379 Y80.841 E1.367
G1 X130.756 Y80.841 E0.011
G1 X130.756 Y129.3 E1.367
G1 X131.133 Y129.3 E0.011
G1 X131.133 Y80.841 E1.367
G1 X131.51 Y80.841 E0.011
G1 X131.51 Y129.3 E1.367
G1 X131.887 Y129.3 E0.011
G1 X131.887 Y80.841 E1.367
G1 X132.264 Y80.841 E0.011
G1 X132.264 Y129.3 E1.367
G1 X132.641 Y129.3 E0.011
G1 X132.641 Y80.841 E1.367
G1 X133.018 Y80.841 E0.011
G1 X133.018 Y129.3 E1.367
G1 X133.395 Y129.3 E0.011
G1 X133.395 Y80.841 E1.367
G1 X133.772 Y80.841 E0.011
G1 X133.772 Y129.3 E1.367
G1 X134.149 Y129.3 E0.011
G1 X134.149 Y80.841 E1.367
G1 X134.526 Y80.841 E0.011
G1 X134.526 Y129.3 E1.367
G1 X134.903 Y129.3 E0.011
G1 X134.903 Y80.841 E1.367
G1 X135.28 Y80.841 E0.011
G1 X135.28 Y129.3 E1.367
G1 X135.657 Y129.3 E0.011
G1 X135.657 Y80.841 E1.367
G1 X136.034 Y80.841 E0.011
G1 X136.034 Y129.3 E1.367
G1 X136.411 Y129.3 E0.011
G1 X136.411 Y80.841 E1.367
G1 X136.788 Y80.841 E0.011
G1 X136.788 Y129.3 E1.367
G1 X137.165 Y129.3 E0.011
G1 X137.165 Y80.841 E1.367
G1 X137.542 Y80.841 E0.011
G1 X137.542 Y129.3 E1.367
G1 X137.919 Y129.3 E0.011
G1 X137.919 Y80.841 E1.367
G1 X138.296 Y80.841 E0.011
G1 X138.296 Y129.3 E1.367
G1 X138.673 Y129.3 E0.011
G1 X138.673 Y80.841 E1.367
G1 X139.05 Y80.841 E0.011
G1 X139.05 Y129.3 E1.367
G1 X139.427 Y129.3 E0.011
G1 X139.427 Y80.841 E1.367
G1 X139.804 Y80.841 E0.011
G1 X139.804 Y129.3 E1.367
G1 X140.181 Y129.3 E0.011
G1 X140.181 Y80.841 E1.367
G1 X140.558 Y80.841 E0.011
G1 X140.558 Y129.3 E1.367
G1 X140.935 Y129.3 E0.011
G1 X140.935 Y80.841 E1.367
G1 X141.312 Y80.841 E0.011
G1 X141.312 Y129.3 E1.367
G1 X141.689 Y129.3 E0.011
G1 X141.689 Y80.841 E1.367
G1 X142.066 Y80.841 E0.011
G1 X142.066 Y129.3 E1.367
G1 X142.443 Y129.3 E0.011
G1 X142.443 Y80.841 E1.367
G1 X142.82 Y80.841 E0.011
G1 X142.82 Y129.3 E1.367
G1 X143.197 Y129.3 E0.011
G1 X143.197 Y80.841 E1.367
G1 X143.574 Y80.841 E0.011
G1 X143.574 Y129.3 E1.367
G1 X143.951 Y129.3 E0.011
G1 X143.951 Y80.841 E1.367
G1 X144.328 Y80.841 E0.011
G1 X144.328 Y129.3 E1.367
G1 X144.705 Y129.3 E0.011
G1 X144.705 Y80.841 E1.367
G1 X145.082 Y80.841 E0.011
G1 X145.082 Y129.3 E1.367
G1 X145.459 Y129.3 E0.011
G1 X145.459 Y80.841 E1.367
G1 X145.836 Y80.841 E0.011
G1 X145.836 Y129.3 E1.367
G1 X146.213 Y129.3 E0.011
G1 X146.213 Y80.841 E1.367
G1 X146.59 Y80.841 E0.011
G1 X146.59 Y129.3 E1.367
G1 X146.967 Y129.3 E0.011
G1 X146.967 Y80.841 E1.367
G1 X147.344 Y80.841 E0.011
G1 X147.344 Y129.3 E1.367
G1 X147.721 Y129.3 E0.011
G1 X147.721 Y80.841 E1.367
G1 X148.098 Y80.841 E0.011
G1 X148.098 Y129.3 E1.367
G1 X148.475 Y129.3 E0.011
G1 X148.475 Y80.841 E1.367
G1 X148.852 Y80.841 E0.011
G1 X148.852 Y129.3 E1.367
G1 X149.229 Y129.3 E0.011
G1 X149.229 Y80.841 E1.367;last command of "print"
M204 S1000
M106 S51
;BEFORE_LAYER_CHANGE
G92 E0.0
;0.4


G1 F8640
G1 X149.229 Y80.841 E-0.7600
G1 E-0.04000 F2100.00000
G1 Z1.2 F10800.000
;AFTER_LAYER_CHANGE
;0.4
M140 S110 ; set bed temperature
G1 X100.587 Y80.587
G1 Z0.4
G1 E0.80000 F2100.00000
M204 S800 ; start of +layer frame
G1 F1200
G1 X149.413 Y80.587 E1.37781
G1 X149.413 Y129.413 E1.37781
G1 X100.587 Y129.413 E1.37781
G1 X100.587 Y80.647 E1.37612
G1 X100.210 Y80.210 F10800.000
G1 F2100
G1 X149.790 Y80.210 E1.39909
G1 X149.790 Y129.790 E1.39909
G1 X100.210 Y129.790 E1.39909
G1 X100.210 Y80.270 E1.39740
G1 X100.596 Y80.314 F10800.000
G1 F8640
M204 S1000
G1 X100.329 Y129.389 F10800.000
G1 F8640
G1 X103.501 Y80.266 E-0.76000
G1 E-0.04000 F2100.00000
G1 Z1.2 F10800.000
G1 X100.973 Y129.3 ; G1 X100.973 Y129.300
G1 Z0.4
G1 E0.80000 F2100.00000
M204 S1250
G1 F8077.5
;last command of "print"
G1 X100.973 Y80.841 E1.367
G1 X101.35 Y80.841 E0.011
G1 X101.35 Y129.3 E1.367
G1 X101.727 Y129.3 E0.011
G1 X101.727 Y80.841 E1.367
G1 X102.104 Y80.841 E0.011
G1 X102.104 Y129.3 E1.367
G1 X102.481 Y129.3 E0.011
G1 X102.481 Y80.841 E1.367
G1 X102.858 Y80.841 E0.011
G1 X102.858 Y129.3 E1.367
G1 X103.235 Y129.3 E0.011
G1 X103.235 Y80.841 E1.367
G1 X103.612 Y80.841 E0.011
G1 X103.612 Y129.3 E1.367
G1 X103.989 Y129.3 E0.011
G1 X103.989 Y80.841 E1.367
G1 X104.366 Y80.841 E0.011
G1 X104.366 Y129.3 E1.367
G1 X104.743 Y129.3 E0.011
G1 X104.743 Y80.841 E1.367
G1 X105.12 Y80.841 E0.011
G1 X105.12 Y129.3 E1.367
G1 X105.497 Y129.3 E0.011
G1 X105.497 Y80.841 E1.367
G1 X105.874 Y80.841 E0.011
G1 X105.874 Y129.3 E1.367
G1 X106.251 Y129.3 E0.011
G1 X106.251 Y80.841 E1.367
G1 X106.628 Y80.841 E0.011
G1 X106.628 Y129.3 E1.367
G1 X107.005 Y129.3 E0.011
G1 X107.005 Y80.841 E1.367
G1 X107.382 Y80.841 E0.011
G1 X107.382 Y129.3 E1.367
G1 X107.759 Y129.3 E0.011
G1 X107.759 Y80.841 E1.367
G1 X108.136 Y80.841 E0.011
G1 X108.136 Y129.3 E1.367
G1 X108.513 Y129.3 E0.011
G1 X108.513 Y80.841 E1.367
G1 X108.89 Y80.841 E0.011
G1 X108.89 Y129.3 E1.367
G1 X109.267 Y129.3 E0.011
G1 X109.267 Y80.841 E1.367
G1 X109.644 Y80.841 E0.011
G1 X109.644 Y129.3 E1.367
G1 X110.021 Y129.3 E0.011
G1 X110.021 Y80.841 E1.367
G1 X110.398 Y80.841 E0.011
G1 X110.398 Y129.3 E1.367
G1 X110.775 Y129.3 E0.011
G1 X110.775 Y80.841 E1.367
G1 X111.152 Y80.841 E0.011
G1 X111.152 Y129.3 E1.367
G1 X111.529 Y129.3 E0.011
G1 X111.529 Y80.841 E1.367
G1 X111.906 Y80.841 E0.011
G1 X111.906 Y129.3 E1.367
G1 X112.283 Y129.3 E0.011
G1 X112.283 Y80.841 E1.367
G1 X112.66 Y80.841 E0.011
G1 X112.66 Y129.3 E1.367
G1 X113.037 Y129.3 E0.011
G1 X113.037 Y80.841 E1.367
G1 X113.414 Y80.841 E0.011
G1 X113.414 Y129.3 E1.367
G1 X113.791 Y129.3 E0.011
G1 X113.791 Y80.841 E1.367
G1 X114.168 Y80.841 E0.011
G1 X114.168 Y129.3 E1.367
G1 X114.545 Y129.3 E0.011
G1 X114.545 Y80.841 E1.367
G1 X114.922 Y80.841 E0.011
G1 X114.922 Y129.3 E1.367
G1 X115.299 Y129.3 E0.011
G1 X115.299 Y80.841 E1.367
G1 X115.676 Y80.841 E0.011
G1 X115.676 Y129.3 E1.367
G1 X116.053 Y129.3 E0.011
G1 X116.053 Y80.841 E1.367
G1 X116.43 Y80.841 E0.011
G1 X116.43 Y129.3 E1.367
G1 X116.807 Y129.3 E0.011
G1 X116.807 Y80.841 E1.367
G1 X117.184 Y80.841 E0.011
G1 X117.184 Y129.3 E1.367
G1 X117.561 Y129.3 E0.011
G1 X117.561 Y80.841 E1.367
G1 X117.938 Y80.841 E0.011
G1 X117.938 Y129.3 E1.367
G1 X118.315 Y129.3 E0.011
G1 X118.315 Y80.841 E1.367
G1 X118.692 Y80.841 E0.011
G1 X118.692 Y129.3 E1.367
G1 X119.069 Y129.3 E0.011
G1 X119.069 Y80.841 E1.367
G1 X119.446 Y80.841 E0.011
G1 X119.446 Y129.3 E1.367
G1 X119.823 Y129.3 E0.011
G1 X119.823 Y80.841 E1.367
G1 X120.2 Y80.841 E0.011
G1 X120.2 Y129.3 E1.367
G1 X120.577 Y129.3 E0.011
G1 X120.577 Y80.841 E1.367
G1 X120.954 Y80.841 E0.011
G1 X120.954 Y129.3 E1.367
G1 X121.331 Y129.3 E0.011
G1 X121.331 Y80.841 E1.367
G1 X121.708 Y80.841 E0.011
G1 X121.708 Y129.3 E1.367
G1 X122.085 Y129.3 E0.011
G1 X122.085 Y80.841 E1.367
G1 X122.462 Y80.841 E0.011
G1 X122.462 Y129.3 E1.367
G1 X122.839 Y129.3 E0.011
G1 X122.839 Y80.841 E1.367
G1 X123.216 Y80.841 E0.011
G1 X123.216 Y129.3 E1.367
G1 X123.593 Y129.3 E0.011
G1 X123.593 Y80.841 E1.367
G1 X123.97 Y80.841 E0.011
G1 X123.97 Y129.3 E1.367
G1 X124.347 Y129.3 E0.011
G1 X124.347 Y80.841 E1.367
G1 X124.724 Y80.841 E0.011
G1 X124.724 Y129.3 E1.367
G1 X125.101 Y129.3 E0.011
M73 P2
G1 X125.101 Y80.841 E1.367
G1 X125.478 Y80.841 E0.011
G1 X125.478 Y129.3 E1.367
G1 X125.855 Y129.3 E0.011
G1 X125.855 Y80.841 E1.367
G1 X126.232 Y80.841 E0.011
G1 X126.232 Y129.3 E1.367
G1 X126.609 Y129.3 E0.011
G1 X126.609 Y80.841 E1.367
G1 X126.986 Y80.841 E0.011
G1 X126.986 Y129.3 E1.367
G1 X127.363 Y129.3 E0.011
G1 X127.363 Y80.841 E1.367
G1 X127.74 Y80.841 E0.011
G1 X127.74 Y129.3 E1.367
G1 X128.117 Y129.3 E0.011
G1 X128.117 Y80.841 E1.367
G1 X128.494 Y80.841 E0.011
G1 X128.494 Y129.3 E1.367
G1 X128.871 Y129.3 E0.011
G1 X128.871 Y80.841 E1.367
G1 X129.248 Y80.841 E0.011
G1 X129.248 Y129.3 E1.367
G1 X129.625 Y129.3 E0.011
G1 X129.625 Y80.841 E1.367
G1 X130.002 Y80.841 E0.011
G1 X130.002 Y129.3 E1.367
G1 X130.379 Y129.3 E0.011
G1 X130.379 Y80.841 E1.367
G1 X130.756 Y80.841 E0.011
G1 X130.756 Y129.3 E1.367
G1 X131.133 Y129.3 E0.011
G1 X131.133 Y80.841 E1.367
G1 X131.51 Y80.841 E0.011
G1 X131.51 Y129.3 E1.367
G1 X131.887 Y129.3 E0.011
G1 X131.887 Y80.841 E1.367
G1 X132.264 Y80.841 E0.011
G1 X132.264 Y129.3 E1.367
G1 X132.641 Y129.3 E0.011
G1 X132.641 Y80.841 E1.367
G1 X133.018 Y80.841 E0.011
G1 X133.018 Y129.3 E1.367
G1 X133.395 Y129.3 E0.011
G1 X133.395 Y80.841 E1.367
G1 X133.772 Y80.841 E0.011
G1 X133.772 Y129.3 E1.367
G1 X134.149 Y129.3 E0.011
G1 X134.149 Y80.841 E1.367
G1 X134.526 Y80.841 E0.011
G1 X134.526 Y129.3 E1.367
G1 X134.903 Y129.3 E0.011
G1 X134.903 Y80.841 E1.367
G1 X135.28 Y80.841 E0.011
G1 X135.28 Y129.3 E1.367
G1 X135.657 Y129.3 E0.011
G1 X135.657 Y80.841 E1.367
G1 X136.034 Y80.841 E0.011
G1 X136.034 Y129.3 E1.367
G1 X136.411 Y129.3 E0.011
G1 X136.411 Y80.841 E1.367
G1 X136.788 Y80.841 E0.011
G1 X136.788 Y129.3 E1.367
G1 X137.165 Y129.3 E0.011
G1 X137.165 Y80.841 E1.367
G1 X137.542 Y80.841 E0.011
G1 X137.542 Y129.3 E1.367
G1 X137.919 Y129.3 E0.011
G1 X137.919 Y80.841 E1.367
G1 X138.296 Y80.841 E0.011
G1 X138.296 Y129.3 E1.367
G1 X138.673 Y129.3 E0.011
G1 X138.673 Y80.841 E1.367
G1 X139.05 Y80.841 E0.011
G1 X139.05 Y129.3 E1.367
G1 X139.427 Y129.3 E0.011
G1 X139.427 Y80.841 E1.367
G1 X139.804 Y80.841 E0.011
G1 X139.804 Y129.3 E1.367
G1 X140.181 Y129.3 E0.011
G1 X140.181 Y80.841 E1.367
G1 X140.558 Y80.841 E0.011
G1 X140.558 Y129.3 E1.367
G1 X140.935 Y129.3 E0.011
G1 X140.935 Y80.841 E1.367
G1 X141.312 Y80.841 E0.011
